img/icons/envelope.svg

<svg width="24" height="24" viewBox="0 0 24 24" fill="none" xmlns="http://www.w3.org/2000/svg">
<path d="M4 6L12.2286 12L19.9999 6M21 8.19995V15.8C21 16.9201 21.0002 17.4802 20.7822 17.908C20.5905 18.2844 20.2841 18.5902 19.9078 18.782C19.48 19 18.9203 19 17.8002 19H6.2002C5.08009 19 4.51962 19 4.0918 18.782C3.71547 18.5902 3.40973 18.2844 3.21799 17.908C3 17.4802 3 16.9201 3 15.8V8.19995C3 7.07985 3 6.51986 3.21799 6.09204C3.40973 5.71572 3.71547 5.40973 4.0918 5.21799C4.51962 5 5.08009 5 6.2002 5H17.8002C18.9203 5 19.48 5 19.9078 5.21799C20.2841 5.40973 20.5905 5.71572 20.7822 6.09204C21.0002 6.51986 21 7.07985 21 8.19995Z" stroke="#8C8D92" stroke-width="2" stroke-linecap="round" stroke-linejoin="round"/>
</svg>

<svg width="24" height="24" fill="none" xmlns="http://www.w3.org/2000/svg"><path d="m4 6 8.229 6 7.77-6M21 8.2v7.6c0 1.12 0 1.68-.218 2.108a2 2 0 0 1-.874.874C19.48 19 18.92 19 17.8 19H6.2c-1.12 0-1.68 0-2.108-.218a2 2 0 0 1-.874-.874C3 17.48 3 16.92 3 15.8V8.2c0-1.12 0-1.68.218-2.108a2 2 0 0 1 .874-.874C4.52 5 5.08 5 6.2 5h11.6c1.12 0 1.68 0 2.108.218a2 2 0 0 1 .874.874C21 6.52 21 7.08 21 8.2Z" stroke="#8C8D92" stroke-width="2" stroke-linecap="round" stroke-linejoin="round"/></svg>
